svgs/duotone/laptop.svg

<svg xmlns="http://www.w3.org/2000/svg" viewBox="0 0 640 512"><!--! Font Awesome Pro 6.0.0-alpha3 by @fontawesome - https://fontawesome.com License - https://fontawesome.com/license (Commercial License) --><defs><style>.fa-secondary{opacity:.4}</style></defs><path class="fa-primary" d="M512 352H128V96h384V352z"/><path class="fa-secondary" d="M624 383.1h-608c-8.75 0-16 7.25-16 16v16c0 35.25 28.75 64 64 64h512c35.25 0 64-28.75 64-64v-16C640 391.2 632.8 383.1 624 383.1zM128 96h384v256h64v-272c0-26.38-21.62-48-48-48h-416c-26.38 0-48 21.62-48 48V352h64V96z"/></svg>

<svg xmlns="http://www.w3.org/2000/svg" viewBox="0 0 640 512"><!-- Font Awesome Pro 6.0.0-alpha2 by @fontawesome - https://fontawesome.com License - https://fontawesome.com/license (Commercial License) --><defs><style>.fa-secondary{opacity:.4}</style></defs><path d="M624 384H16C7.25 384 0 391.25 0 400V416C0 451.25 28.75 480 64 480H576C611.25 480 640 451.25 640 416V400C640 391.25 632.75 384 624 384ZM128 96H512V352H576V80C576 53.625 554.375 32 528 32H112C85.625 32 64 53.625 64 80V352H128V96Z" class="fa-secondary"/><path d="M512 352H128V96H512V352Z" class="fa-primary"/></svg>
